X:150
T:Amarillis told her swain
M:C
L:1/8
K:Eb
%%score 1 2
V:1 clef-treble
V:2 clef-bass octave=-1
V:1
[GB]3[FA][EG]2([B,F][G,E])|[A,F]2[A,B,]2[G,E]4|([GB][Ac])([GB][FA]) ([EG][DF])([EG][G,E])[A,DF]2B,2[G,E]4||
w:Phil-lis on the* new-made hay, On* a* plea--sant* sum-mer's day,
V:2
[E,B,]8-|[E,B,]6B,2|E6E,2|B,4E,4||
V:1
[DF]3[EG][FA]2[EG]2|[FA]2[GB]2c3d&x4A4|[Ge]2[Gd]2([Fce]f)[FBd]2|[E=Ac]4[DB]4|
w:In `re-clin-ing' pos-ture lay, And thought no shep-*herd nigh her;
V:2
B,8-|B,6B,2|C2B,2=A,2B,2|F2F,2B,4|
V:1
e3d[E_Ac]2[EB]2&[EB]2x6|([EAc]B)[DA]2G3A&x4E2DC|[B,B]2[E(c]B) [E(A]G) [DF]2|[A,DF]4[G,E]4||
w:Till A-min-tas came* that way, And threw him-*self* down by her.
V:2
G4_A2G2|F2B,2C2B,A,|G,2A,G,F,2B,2|E,2B,2E4||

